SFASUI/public/images/iconend87.svg

<svg width="24" height="25" viewBox="0 0 24 25" fill="none" xmlns="http://www.w3.org/2000/svg">
<path fill-rule="evenodd" clip-rule="evenodd" d="M11.2929 4.79289C11.6834 4.40237 12.3166 4.40237 12.7071 4.79289L19.7071 11.7929C20.0976 12.1834 20.0976 12.8166 19.7071 13.2071L12.7071 20.2071C12.3166 20.5976 11.6834 20.5976 11.2929 20.2071C10.9024 19.8166 10.9024 19.1834 11.2929 18.7929L16.5858 13.5H5C4.44772 13.5 4 13.0523 4 12.5C4 11.9477 4.44772 11.5 5 11.5H16.5858L11.2929 6.20711C10.9024 5.81658 10.9024 5.18342 11.2929 4.79289Z" fill="#202020"/>
</svg>

<svg width="24" height="25" fill="none" xmlns="http://www.w3.org/2000/svg"><path fill-rule="evenodd" clip-rule="evenodd" d="M11.293 4.793a1 1 0 0 1 1.414 0l7 7a1 1 0 0 1 0 1.414l-7 7a1 1 0 0 1-1.414-1.414l5.293-5.293H5a1 1 0 1 1 0-2h11.586l-5.293-5.293a1 1 0 0 1 0-1.414Z" fill="#202020"/></svg>
